src/icons/ellipsis.svg

<svg xmlns="http://www.w3.org/2000/svg" width="512" height="512" viewBox="0 0 512 512">
    <path d="M130 242.5c-24.3 0-44-18.9-44-42.5 0-23.5 19.7-42.5 44-42.5 24.4 0 44.1 19 44.1 42.5 0 23.6-19.7 42.5-44.1 42.5zm126 0c-24.3 0-44.1-18.9-44.1-42.5 0-23.5 19.8-42.5 44.1-42.5s44 19 44 42.5c0 23.6-19.7 42.5-44 42.5zm125.9 0c-24.3 0-44.1-18.9-44.1-42.5 0-23.5 19.7-42.5 44.1-42.5 24.3 0 44.1 19 44.1 42.5 0 23.6-19.7 42.5-44.1 42.5z"/>
</svg>

<?xml version="1.0" encoding="UTF-8"?>
<svg width="512px" height="512px" viewBox="0 0 512 512" version="1.1" xmlns="http://www.w3.org/2000/svg" xmlns:xlink="http://www.w3.org/1999/xlink">
    <!-- Generator: Sketch 62 (91390) - https://sketch.com -->
    <title>ellipsis</title>
    <desc>Created with Sketch.</desc>
    <g id="ellipsis" stroke="none" stroke-width="1" fill="none" fill-rule="evenodd">
        <path d="M130,242.5 C105.7,242.5 86,223.6 86,200 C86,176.5 105.7,157.5 130,157.5 C154.4,157.5 174.1,176.5 174.1,200 C174.1,223.6 154.4,242.5 130,242.5 Z M256,242.5 C231.7,242.5 211.9,223.6 211.9,200 C211.9,176.5 231.7,157.5 256,157.5 C280.3,157.5 300,176.5 300,200 C300,223.6 280.3,242.5 256,242.5 Z M381.9,242.5 C357.6,242.5 337.8,223.6 337.8,200 C337.8,176.5 357.5,157.5 381.9,157.5 C406.2,157.5 426,176.5 426,200 C426,223.6 406.3,242.5 381.9,242.5 Z" id="Shape" fill="#000000" fill-rule="nonzero"></path>
    </g>
</svg>
